X: 13250
T: Fishnet Jig, The
R: slip jig
M: 9/8
K: Dmixolydian
A3 DED F2G|~A3 DFA GFD|AdA DED F2A|GFE cBG GE/F/G|
AdA DED F2G|~A3 DFA GFD|AdA DED FGA|GFE cBG GE/F/G||
AFD dcA dcA|AFD dcB cBG|AFD dcA AGF|~G3 cBG AFD|
AFD dcA dcA|AFD dcB cBG|AFD dcA AGF|~G3 cBG EFG||

